X: 21770
T: King Of The Pipers
R: jig
M: 6/8
K: Cdorian
|:ecA ~c3|FGF cAF|ecA ~c3|~G3 ~B3|
ecA ~c3|FGF cAF|~A3 ~G3|1 FGA B2c:|2 FGA B2e||
K: Fmaj
|:f2g agf|gec cde|f2g agf|ac'a bag|
f2g agf|gec cdc|~A3 ~G3|1 FGA B2e:|2 FGA B2c||
|:d_ed cBc|dBG G2c|d_ed ~c2B|AGF FAc|
d_ed cBc|dBG GBd|fef dcB|1 AGF FAc:|2 AGF F2c||

